X: 5
T: The Seven Step
R: barndance
M: 4/4
L: 1/8
K: Gmaj
(3DEF |G2 G2 G2 G2 | F>GA>F G2 D2 | B2 B2 B2 B2 | A>Bc>A B2 G2 ||
B>cd>B G4 | A>Bc>A E4 | D>EF>G A>Bc>d | e2 d2 B4 |
B>cd>B G2 D2 | A>Bc>A E2 (3GFE | D>EF>G A>B (3cBA | B2 G2 G2 |]


Tune 1307	Setting 14629

